img/sect-features/2.svg

<svg width="120" height="105" viewBox="0 0 120 105" fill="none" xmlns="http://www.w3.org/2000/svg">
<path d="M100.136 46.1905C73.6735 30.8844 46.3265 30.8844 19.8639 46.1905C6.59864 53.8096 0 61.5647 0 69.3878C0 77.1429 6.59864 84.898 19.8639 92.5851C46.3265 107.891 73.6735 107.891 100.136 92.5851C113.401 84.966 120 77.1429 120 69.3878C120 61.5647 113.401 53.8096 100.136 46.1905Z" fill="#949494"/>
<path d="M100.136 80.9525C73.6735 96.2586 46.3265 96.2586 19.8639 80.9525C6.59864 73.3335 0 65.5783 0 57.8232V69.3879C0 77.143 6.59864 84.8981 19.8639 92.5852C46.3265 107.891 73.6735 107.891 100.136 92.5852C113.401 84.9661 120 77.143 120 69.3879V57.8232C120 65.5783 113.401 73.3335 100.136 80.9525Z" fill="url(#paint0_linear)"/>
<path d="M100.136 34.626C73.6735 19.3198 46.3265 19.3198 19.8639 34.626C6.59864 42.245 0 50.0001 0 57.8232C0 65.5783 6.59864 73.3334 19.8639 81.0205C46.3265 96.3266 73.6735 96.3266 100.136 81.0205C113.401 73.4015 120 65.5783 120 57.8232C120 50.0001 113.401 42.245 100.136 34.626Z" fill="#FFDB32"/>
<path d="M96.7347 53.1974C96.7347 50.7484 95.6463 48.2994 93.4694 45.8504V23.7416L68.3674 9.25179V4.42185C68.3674 3.26539 67.619 2.17695 66.1224 1.2926C63.1292 -0.40808 58.2993 -0.40808 55.3061 1.2926C53.8095 2.17695 53.0612 3.26539 53.0612 4.42185V32.5851C47.1429 33.5375 41.2925 35.6463 35.4422 39.0477C27.3469 43.7416 23.2653 48.5035 23.2653 53.2654V57.0069C23.2653 61.7688 27.3469 66.5307 35.4422 71.2246C51.6327 80.6123 68.3674 80.6123 84.5578 71.2246C92.6531 66.5307 96.7347 61.7688 96.7347 57.0069V53.1974Z" fill="#D19600"/>
<path d="M84.5578 67.4152C68.3674 76.803 51.6327 76.803 35.4422 67.4152C27.3469 62.7213 23.2653 57.9594 23.2653 53.1975V56.939C23.2653 61.7009 27.3469 66.4628 35.4422 71.1567C51.6327 80.5444 68.3674 80.5444 84.5578 71.1567C92.6531 66.4628 96.7347 61.7009 96.7347 56.939V53.1975C96.7347 57.9594 92.6531 62.7213 84.5578 67.4152Z" fill="url(#paint1_linear)"/>
<path d="M84.5578 39.0478C68.3674 29.66 51.6327 29.66 35.4422 39.0478C27.3469 43.7417 23.2653 48.5036 23.2653 53.2655C23.2653 58.0274 27.3469 62.7893 35.4422 67.4832C51.6327 76.8709 68.3674 76.8709 84.5578 67.4832C92.6531 62.7893 96.7347 58.0274 96.7347 53.2655C96.7347 48.4355 92.6531 43.7417 84.5578 39.0478Z" fill="#B0CB00"/>
<path d="M66.1225 7.551C63.1293 9.25169 58.2993 9.25169 55.3061 7.551C53.8095 6.66665 53.0612 5.57822 53.0612 4.42175V54.2177C53.0612 55.3741 53.8095 56.4626 55.3061 57.3469C58.2993 59.0476 63.1293 59.0476 66.1225 57.3469C67.6191 56.4626 68.3674 55.3741 68.3674 54.2177V4.42175C68.3674 5.57822 67.6191 6.66665 66.1225 7.551Z" fill="url(#paint2_linear)"/>
<path d="M66.1225 7.5511C63.1293 9.25178 58.2993 9.25178 55.3061 7.5511C53.8095 6.66675 53.0612 5.57831 53.0612 4.42185C53.0612 3.26539 53.8095 2.17695 55.3061 1.2926C58.2993 -0.40808 63.1293 -0.40808 66.1225 1.2926C67.6191 2.17695 68.3674 3.26539 68.3674 4.42185C68.3674 5.57831 67.6191 6.66675 66.1225 7.5511Z" fill="#383838"/>
<path d="M61.4286 44.2858V13.1974L86.5986 27.6872V58.8436L61.4286 44.2858Z" fill="#F24D1A"/>
<path d="M86.5986 58.8436V27.6872L93.4694 23.7416V54.83L86.5986 58.8436Z" fill="#D93A12"/>
<path d="M93.4694 23.7416L68.2993 9.25183C68.1633 10.2042 67.415 11.2246 66.1224 11.9729C64.8299 12.7212 63.1293 13.1294 61.4286 13.2654L86.5986 27.7552L93.4694 23.7416Z" fill="#FF5D12"/>
<defs>
<linearGradient id="paint0_linear" x1="0" y1="80.8952" x2="120.003" y2="80.8952" gradientUnits="userSpaceOnUse">
<stop stop-color="#FFED44"/>
<stop offset="0.0719216" stop-color="#FFF047"/>
<stop offset="0.3006" stop-color="#FFF24A"/>
<stop offset="0.5494" stop-color="#FFE23A"/>
<stop offset="0.7441" stop-color="#FFDC34"/>
<stop offset="1" stop-color="#F9B519"/>
</linearGradient>
<linearGradient id="paint1_linear" x1="23.2785" y1="65.6962" x2="96.7244" y2="65.6962" gradientUnits="userSpaceOnUse">
<stop stop-color="#ABD900"/>
<stop offset="0.0554341" stop-color="#ABDB00"/>
<stop offset="0.3006" stop-color="#ABDE00"/>
<stop offset="0.5494" stop-color="#ABCE00"/>
<stop offset="0.7441" stop-color="#ABC800"/>
<stop offset="1" stop-color="#ABC200"/>
</linearGradient>
<linearGradient id="paint2_linear" x1="53.0464" y1="31.5281" x2="68.3513" y2="31.5281" gradientUnits="userSpaceOnUse">
<stop stop-color="#484848"/>
<stop offset="0.0719216" stop-color="#4B4B4B"/>
<stop offset="0.3006" stop-color="#4E4E4E"/>
<stop offset="0.5374" stop-color="#404040"/>
<stop offset="0.7441" stop-color="#3A3A3A"/>
<stop offset="1" stop-color="#161616"/>
</linearGradient>
</defs>
</svg>

<svg width="120" height="105" viewBox="0 0 120 105" fill="none" xmlns="http://www.w3.org/2000/svg"><path d="M100.136 46.19c-26.462-15.306-53.81-15.306-80.272 0C6.599 53.81 0 61.566 0 69.388c0 7.755 6.599 15.51 19.864 23.197 26.463 15.306 53.81 15.306 80.272 0C113.401 84.966 120 77.143 120 69.388c0-7.823-6.599-15.578-19.864-23.198z" fill="#949494"/><path d="M100.136 80.953c-26.462 15.306-53.81 15.306-80.272 0C6.599 73.332 0 65.578 0 57.823v11.565c0 7.755 6.599 15.51 19.864 23.197 26.463 15.306 53.81 15.306 80.272 0C113.401 84.966 120 77.143 120 69.388V57.823c0 7.755-6.599 15.51-19.864 23.13z" fill="url(#a)"/><path d="M100.136 34.626c-26.462-15.306-53.81-15.306-80.272 0C6.599 42.245 0 50 0 57.823c0 7.755 6.599 15.51 19.864 23.197 26.463 15.307 53.81 15.307 80.272 0C113.401 73.403 120 65.578 120 57.823c0-7.823-6.599-15.578-19.864-23.197z" fill="#FFDB32"/><path d="M96.735 53.197c0-2.449-1.089-4.898-3.266-7.347V23.742L68.367 9.252v-4.83c0-1.157-.748-2.245-2.245-3.13-2.993-1.7-7.823-1.7-10.816 0-1.496.885-2.245 1.973-2.245 3.13v28.163c-5.918.953-11.769 3.061-17.619 6.463-8.095 4.694-12.177 9.456-12.177 14.217v3.742c0 4.762 4.082 9.524 12.177 14.218 16.19 9.387 32.925 9.387 49.116 0 8.095-4.694 12.177-9.456 12.177-14.218v-3.81z" fill="#D19600"/><path d="M84.558 67.415c-16.19 9.388-32.925 9.388-49.116 0-8.095-4.694-12.177-9.456-12.177-14.218v3.742c0 4.762 4.082 9.524 12.177 14.218 16.19 9.387 32.925 9.387 49.116 0 8.095-4.694 12.177-9.456 12.177-14.218v-3.742c0 4.762-4.082 9.524-12.177 14.218z" fill="url(#b)"/><path d="M84.558 39.048c-16.19-9.388-32.925-9.388-49.116 0-8.095 4.694-12.177 9.456-12.177 14.218 0 4.761 4.082 9.523 12.177 14.217 16.19 9.388 32.925 9.388 49.116 0 8.095-4.694 12.177-9.456 12.177-14.218 0-4.83-4.082-9.523-12.177-14.217z" fill="#B0CB00"/><path d="M66.123 7.551c-2.994 1.7-7.824 1.7-10.817 0-1.496-.884-2.245-1.973-2.245-3.13v49.797c0 1.156.748 2.245 2.245 3.129 2.993 1.7 7.823 1.7 10.817 0 1.496-.884 2.244-1.973 2.244-3.13V4.423c0 1.156-.748 2.245-2.245 3.129z" fill="url(#c)"/><path d="M66.123 7.551c-2.994 1.7-7.824 1.7-10.817 0-1.496-.884-2.245-1.973-2.245-3.13 0-1.156.748-2.244 2.245-3.128 2.993-1.701 7.823-1.701 10.817 0 1.496.884 2.244 1.972 2.244 3.129 0 1.156-.748 2.245-2.245 3.13z" fill="#383838"/><path d="M61.429 44.286V13.197l25.17 14.49v31.157l-25.17-14.558z" fill="#F24D1A"/><path d="M86.599 58.844V27.687l6.87-3.945V54.83l-6.87 4.014z" fill="#D93A12"/><path d="M93.47 23.742L68.3 9.252c-.137.952-.885 1.973-2.178 2.72-1.292.75-2.993 1.157-4.693 1.293l25.17 14.49 6.87-4.013z" fill="#FF5D12"/><defs><linearGradient id="a" y1="80.895" x2="120.003" y2="80.895" gradientUnits="userSpaceOnUse"><stop stop-color="#FFED44"/><stop offset=".072" stop-color="#FFF047"/><stop offset=".301" stop-color="#FFF24A"/><stop offset=".549" stop-color="#FFE23A"/><stop offset=".744" stop-color="#FFDC34"/><stop offset="1" stop-color="#F9B519"/></linearGradient><linearGradient id="b" x1="23.279" y1="65.696" x2="96.724" y2="65.696" gradientUnits="userSpaceOnUse"><stop stop-color="#ABD900"/><stop offset=".055" stop-color="#ABDB00"/><stop offset=".301" stop-color="#ABDE00"/><stop offset=".549" stop-color="#ABCE00"/><stop offset=".744" stop-color="#ABC800"/><stop offset="1" stop-color="#ABC200"/></linearGradient><linearGradient id="c" x1="53.046" y1="31.528" x2="68.351" y2="31.528" gradientUnits="userSpaceOnUse"><stop stop-color="#484848"/><stop offset=".072" stop-color="#4B4B4B"/><stop offset=".301" stop-color="#4E4E4E"/><stop offset=".537" stop-color="#404040"/><stop offset=".744" stop-color="#3A3A3A"/><stop offset="1" stop-color="#161616"/></linearGradient></defs></svg>
